X: 491
T: Sr John Stuart of Gartallie's Rant
%R: rant, strathspey
B: "Preston's Twenty Four Country Dances for the Year 1803", Tho. Preston, ed. p.206 #1
F: http://archive.org/details/Prestons24CountryDancesForTheYear1805
F: http://folkopedia.efdss.org/wiki/File:Preston_24_1803.PDF
Z: 2011,2014 John Chambers <jc:trillian.mit.edu>
M: C|
L: 1/16
K: D
f2 |\
d4 (TA3G) F2D2A2F2 | E2c2G2c2 | E2C2G2E2 | d4 (TA3G) F2D2A2F2 | GFED C2E2 DDD2 D2 :|
fg |\
agfe d2(f2 d2)fg a2f2 | gfed c2(e2 c2)ef g2e2 | agfe d2(f2 d2)fg a2f2 | gfed c2e2 ddd2 d2fg |
agfe d2(f2 d2)fg a2f2 | gfed c2(e2 c2)ef g2e2 | f2d2g2e2 a2f2g2e2 | f2d2e2f2 ddd2 d2 |]
% - - - - - - - - - - - - - - - - - - - - - - - - -
%%begintext align
%% 1st Gentn follow his partr half round the 2d Cu. set &
%% return to their places at top, lead down the middle
%% & Poussette with the 2d Cu. at top.
%%endtext

%%sep 1 1 500
%%sep 1 1 500
